src/platform/plugins/shared/custom_integrations/public/assets/language_clients/go.svg

<svg width="128" height="128" viewBox="0 0 128 128" fill="none" xmlns="http://www.w3.org/2000/svg">
<path d="M9.66042 54.4797C9.41113 54.4797 9.34881 54.3551 9.47345 54.1681L10.7822 52.4854C10.9068 52.2985 11.2184 52.1738 11.4677 52.1738H33.7164C33.9657 52.1738 34.028 52.3608 33.9034 52.5478L32.8439 54.1681C32.7193 54.3551 32.4077 54.542 32.2207 54.542L9.66042 54.4797Z" fill="#00ACD7"/>
<path d="M0.249286 60.2131C5.20049e-07 60.2131 -0.0623214 60.0885 0.0623211 59.9015L1.37107 58.2188C1.49571 58.0319 1.80732 57.9072 2.0566 57.9072H30.4751C30.7244 57.9072 30.849 58.0942 30.7867 58.2812L30.2881 59.7769C30.2258 60.0261 29.9765 60.1508 29.7272 60.1508L0.249286 60.2131Z" fill="#00ACD7"/>
<path d="M15.3313 65.9465C15.082 65.9465 15.0197 65.7595 15.1444 65.5726L16.0169 64.0146C16.1415 63.8276 16.3908 63.6406 16.6401 63.6406H29.1043C29.3536 63.6406 29.4782 63.8276 29.4782 64.0769L29.3536 65.5726C29.3536 65.8219 29.1043 66.0088 28.9173 66.0088L15.3313 65.9465Z" fill="#00ACD7"/>
<path d="M80.0207 53.3581C76.0945 54.3553 73.4147 55.1031 69.5507 56.1003C68.6159 56.3496 68.5536 56.4119 67.7434 55.4771C66.8086 54.4176 66.1231 53.7321 64.8143 53.1089C60.8881 51.1769 57.0865 51.7378 53.5342 54.0437C49.2963 56.7858 47.1151 60.8367 47.1774 65.8847C47.2397 70.8704 50.6674 74.9836 55.5908 75.6691C59.8286 76.23 63.3809 74.7343 66.1854 71.5559C66.7463 70.8704 67.2449 70.1226 67.8681 69.2501C65.6245 69.2501 62.82 69.2501 55.8401 69.2501C54.5313 69.2501 54.2197 68.4399 54.656 67.3804C55.4661 65.4485 56.9618 62.2078 57.8343 60.5874C58.0213 60.2135 58.4576 59.5903 59.3924 59.5903C62.5708 59.5903 74.2872 59.5903 82.0773 59.5903C81.9527 61.2729 81.9527 62.9556 81.7034 64.6383C81.0179 69.1254 79.3352 73.2386 76.593 76.8532C72.1059 82.7738 66.2477 86.4507 58.8315 87.4479C52.724 88.258 47.0528 87.0739 42.0671 83.3347C37.4553 79.8447 34.8378 75.2329 34.1523 69.4993C33.3421 62.7063 35.3364 56.5988 39.4496 51.2392C43.8744 45.4433 49.7326 41.7664 56.8995 40.4576C62.7577 39.3982 68.3666 40.0837 73.4147 43.5114C76.7177 45.6926 79.0859 48.684 80.6439 52.2987C81.0179 52.8596 80.7686 53.1712 80.0207 53.3581Z" fill="#00ACD7"/>
<path d="M100.649 87.8219C94.9781 87.6972 89.8055 86.0769 85.443 82.3376C81.766 79.1592 79.4602 75.1083 78.7123 70.3096C77.5905 63.2673 79.5225 57.0352 83.7603 51.4886C88.3098 45.5057 93.794 42.3897 101.21 41.0809C107.567 39.9591 113.55 40.5823 118.972 44.2593C123.895 47.6246 126.949 52.1741 127.759 58.1569C128.819 66.5703 126.388 73.4256 120.592 79.2838C116.479 83.4594 111.431 86.0769 105.635 87.261C103.952 87.5726 102.27 87.6349 100.649 87.8219ZM115.482 62.6441C115.42 61.8339 115.42 61.2107 115.295 60.5875C114.173 54.4177 108.502 50.9277 102.581 52.2987C96.7855 53.6075 93.0462 57.2844 91.6751 63.1426C90.5533 68.0037 92.9215 72.9271 97.4087 74.9214C100.836 76.4171 104.264 76.2301 107.567 74.5474C112.49 71.9923 115.17 68.0037 115.482 62.6441Z" fill="#00ACD7"/>
</svg>

<svg xmlns="http://www.w3.org/2000/svg" width="128" height="128" fill="none"><path fill="#00ACD7" d="M9.66 54.48c-.249 0-.311-.125-.187-.312l1.31-1.683c.124-.187.435-.311.685-.311h22.248c.25 0 .312.187.187.374l-1.06 1.62c-.124.187-.435.374-.622.374zM.25 60.213c-.25 0-.312-.124-.188-.312l1.31-1.682c.124-.187.435-.312.685-.312h28.418c.25 0 .374.187.312.374l-.499 1.496c-.062.25-.311.374-.56.374zM15.331 65.947c-.249 0-.311-.187-.187-.374l.873-1.558c.125-.187.374-.374.623-.374h12.464c.25 0 .374.187.374.436l-.124 1.496c0 .249-.25.436-.437.436zM80.02 53.358c-3.925.997-6.605 1.745-10.47 2.742-.934.25-.996.312-1.807-.623-.934-1.06-1.62-1.745-2.929-2.368-3.926-1.932-7.727-1.371-11.28.935-4.238 2.742-6.419 6.793-6.357 11.84.063 4.986 3.49 9.1 8.414 9.785 4.238.561 7.79-.935 10.594-4.113.561-.686 1.06-1.433 1.683-2.306H55.84c-1.309 0-1.62-.81-1.184-1.87.81-1.931 2.306-5.172 3.178-6.793.187-.373.624-.997 1.558-.997h22.685c-.124 1.683-.124 3.366-.374 5.048-.685 4.487-2.368 8.6-5.11 12.215-4.487 5.92-10.345 9.598-17.762 10.595-6.107.81-11.778-.374-16.764-4.113-4.612-3.49-7.23-8.102-7.915-13.836-.81-6.793 1.184-12.9 5.298-18.26 4.424-5.796 10.283-9.473 17.45-10.781 5.858-1.06 11.467-.374 16.515 3.053 3.303 2.182 5.67 5.173 7.229 8.788.374.56.125.872-.623 1.06"/><path fill="#00ACD7" d="M100.649 87.822c-5.67-.125-10.844-1.745-15.206-5.484-3.677-3.179-5.983-7.23-6.73-12.028-1.122-7.043.81-13.275 5.047-18.821 4.55-5.983 10.034-9.1 17.45-10.408 6.357-1.122 12.34-.499 17.762 3.178 4.923 3.366 7.977 7.915 8.787 13.898 1.06 8.413-1.371 15.269-7.167 21.127-4.113 4.175-9.161 6.793-14.957 7.977-1.683.312-3.365.374-4.986.56m14.833-25.178c-.062-.81-.062-1.433-.187-2.056-1.122-6.17-6.793-9.66-12.714-8.29-5.796 1.31-9.535 4.986-10.906 10.845-1.122 4.86 1.246 9.784 5.734 11.778 3.427 1.496 6.855 1.31 10.158-.374 4.923-2.555 7.603-6.543 7.915-11.903"/></svg>
